X:48
M:2/4
L:1/8
K:B_
(3F/G/A/|B d B z/d/4c/4|B d B z/d/4e/4|fdBF|G3 (3F/G/A/|B d B z/d/4c/4|
e>fg>e|b>gfd|fdBF|G3 (3F/G/A/|

